public/avatar/body/46.svg

<svg xmlns:xlink="http://www.w3.org/1999/xlink" height="82" width="84.85" xmlns="http://www.w3.org/2000/svg"><g transform="translate(37.4 42.25)"><use height="38" transform="translate(-11.95 -17.45)" width="32.05" xlink:href="#a"/><use height="16.5" transform="translate(-12.1 3.85)" width="32.4" xlink:href="#b"/><use height="38.95" transform="translate(-12.45 -17.95)" width="33.05" xlink:href="#c"/><use height="29.55" transform="translate(-13.5 -13.75)" width="47.25" xlink:href="#d"/></g><defs><path d="M27.35 7.4q2.15 4.15 3.55 8.75 1.45 4.7 1.15 9.5-.35 4.95-4.2 8.1-3.8 3.2-8.75 4.05l-2.6.2q-3.6 0-7.05-1.15-4.65-1.6-7.1-5.5Q-.2 27.4.05 23q.2-4.4 2-9.3Q3.85 8.75 7 5.05 10.1 1.3 14.7.1l1.8-.1q1.9.05 3.7.8 4.75 2.05 7.15 6.6" fill="#fff" fill-rule="evenodd" transform="translate(-.05)" id="e"/><path d="M27.35 7.4Q24.95 2.85 20.2.8 17.55-.3 14.7.1 10.1 1.3 7 5.05q-3.15 3.7-4.95 8.65-1.8 4.9-2 9.3-.25 4.4 2.3 8.35 2.45 3.9 7.1 5.5 4.65 1.55 9.65.95 4.95-.85 8.75-4.05 3.85-3.15 4.2-8.1.3-4.8-1.15-9.5-1.4-4.6-3.55-8.75Z" fill="none" stroke="#000" stroke-linecap="round" stroke-linejoin="round" transform="translate(.45 .5)" id="f"/><use height="38" width="32.05" xlink:href="#e" id="a"/><use height="38.95" width="33.05" xlink:href="#f" id="c"/><g id="b"><path d="m18.9 13.15.2-.15-.05.1-.15.05m-1.3 1.8-.2.25-3.8.45 4-.7" fill="#55eee5" fill-rule="evenodd" transform="translate(12.1 -3.85)"/><path d="m-8.25 13.35 7.15.5.2.35-7.35-.85" fill="#e7e278" fill-rule="evenodd" transform="translate(12.1 -3.85)"/><path d="M18.8 13.15h.1l.15-.05.5-.1-1.8 1.9-.15.05-4 .7-3.6.45.1-1.15-.1-.65 6.6-.8 1.2-.2.35-.05.65-.1m-26.75 2.4-.2-.05-1.15-2.05-.9-.5 1 .25h.1l.85.15 7.35.85v.05l-.2 1.35.1.55-.4-.05-4.9-.4-1.65-.15M-9.2 13.2l.95.15-.95-.15m1.05 2.3 1.85.2-1.85-.2" fill="#d5a89f" fill-rule="evenodd" transform="translate(12.1 -3.85)"/><path d="M-1.1 13.85q-.4-.65-.4-1.2v-.2q.1-.85.8-1.35.8-.55 1.55-.35l.95.7q1.35-.5 2.1-.5l.5.05.4.1q.35-.2.85-.3.8 0 2.05.65.35-.35.85-.45l1.25.25.65 1.1.05.2-.5 1.25-.05.05.05.45.1.65-.1 1.15v.05l.75.8.05.5q0 .75-.6 1.35-.75.85-1.7.75-.65-.05-1.4-.8l-5 .3q-.85.65-1.7.6-.9 0-1.6-.8-.6-.65-.6-1.35l.05-.4q.2-.6.75-.95l-.1-.55.2-1.35v-.05l-.2-.35m5.9-1.5q-.15-.4-.9-.4-1 0-2.5.7-.65-1.4-1.5-.75-1 .7.25 2.1-.45 1.5-.05 2.75-1.45.45-.55 1.45.9 1 2.3-.2l5.6-.3q.95 1.55 2.05.4.95-1.05-.75-1.35.65-1.35.15-3.2 1-1 .35-1.45-.65-.45-1.35.6-1.5-.95-2.15-.9-.55.05-.8.55H4.8" fill-rule="evenodd" transform="translate(12.1 -3.85)"/><path d="M7.55 14.15q1.4 1.95-.15 2.6l-3.3.55-2.8-.2q-.4-.5-.5-1.65-.1-1.25.35-1.6.65-.6 4-.6 1.75 0 2.4.9" fill="#98cce4" fill-rule="evenodd" transform="translate(12.1 -3.85)"/><path d="M4.8 12.35h.15q.25-.5.8-.55.65-.05 2.15.9.7-1.05 1.35-.6.65.45-.35 1.45.5 1.85-.15 3.2 1.7.3.75 1.35-1.1 1.15-2.05-.4l-5.6.3q-1.4 1.2-2.3.2-.9-1 .55-1.45Q-.3 15.5.15 14q-1.25-1.4-.25-2.1.85-.65 1.5.75 1.5-.7 2.5-.7.75 0 .9.4m2.75 1.8q-.65-.9-2.4-.9-3.35 0-4 .6-.45.35-.35 1.6.1 1.15.5 1.65l2.8.2 3.3-.55q1.55-.65.15-2.6" fill="#6196b6" fill-rule="evenodd" transform="translate(12.1 -3.85)"/><path d="m17.4 15.2-.15.15-2.35 2L12.25 19 4.5 20.35l-4.75-.5-5-2.1-1.5-.85-1.2-1.35 1.65.15 4.9.4.4.05q-.55.35-.75.95l-.05.4q0 .7.6 1.35.7.8 1.6.8.85.05 1.7-.6l5-.3q.75.75 1.4.8.95.1 1.7-.75.6-.6.6-1.35l-.05-.5-.75-.8v-.05l3.6-.45 3.8-.45" fill="#839ac0" fill-rule="evenodd" transform="translate(12.1 -3.85)"/><path d="M-9.1 13.2q-1.95-.6-2.15-2.05-1.2-3.4-.7-7.3l4.7 1.7L5.9 8.5l10.2-2.4 3.65-1.95q1.45 4.7-.95 9l-.65.1-.35.05-7.8.5.5-1.25-.05-.2-.65-1.1L8.55 11q-.5.1-.85.45-1.25-.65-2.05-.65-.5.1-.85.3l-.4-.1-.5-.05q-.75 0-2.1.5l-.95-.7q-.75-.2-1.55.35-.7.5-.8 1.35v.2q0 .55.4 1.2l-7.15-.5-.85-.15" fill="#fc0" fill-rule="evenodd" transform="translate(12.1 -3.85)"/><path d="m-8.25 13.35 7.15.5M10 13.8l7.8-.5M10 16.1l3.6-.45 3.8-.45m-18.4.95-.4-.05-4.9-.4-1.85-.2m-.1-2.15-.95-.15" fill="none" stroke="#776456" stroke-linecap="round" stroke-linejoin="round" transform="translate(12.1 -3.85)"/></g><g id="d"><path d="m18.9-3.1-1-2.7h-.05l-.25-.6.25-.9q.9-2.15 2.7-2.6l2.7.2 2.2.1q2.3-.8 4.05-4.15-.55 8.1-3.9 9.95h-.05l-.25-.15q-2-2-4.05-1.55-1.3.25-1.85 1.35l-.5 1.05m1.9 8.3v.1h-.1l.1-.1M29.1-1l-3.25-.6Q23.6-3.45 22.3-3.85q-.85-.25-1.55.35l-.6.65.6-.65q.7-.6 1.55-.35 1.3.4 3.55 2.25l3.25.6m-3.2-6.25-4.45-.5q-1.25.05-2 1.05l-.55 1 .55-1q.75-1 2-1.05l4.45.5m-7 11.55-3.35 2 3.35-2M7.75 9.2q-1.5.65-2.35.7l-2.2-.55-4.5-2.15 4.5 2.15 2.2.55q.85-.05 2.35-.7M-7.1 5.15l-3-1.5 3 1.5m18.85 4.6q-4.2 2.5-6.05 3.1-1.8.6-5.75-3.05 3.95 3.65 5.75 3.05 1.85-.6 6.05-3.1m-23.45-7.6-.4.05v-.05h.4" fill="#e4192b" fill-rule="evenodd" transform="translate(13.5 13.75)"/><path d="m20.75 4.8.05-.05v.45l-.1.1-.65.5q-1.6 1.1-5.4 5.15l-4 4.2q-1.15.7-3.5-.8l1.15-.9 5.5-3.15-5.5 3.15-1.15.9-.2-.15 12.8-8.8 1-.6" fill="#b70216" fill-rule="evenodd" transform="translate(13.5 13.75)"/><path d="m25.7-3.7 1.25.85q1.7 1 2.25.65M7.15 14.35q-1.45.95-2.6.95-1.55 0-11-6.15l-.4-.3-5.9-4.65-.05-.05q-.5-.6.35-1.75l.35-.2.4-.05h.25q.4.05.65.3M18.9-3.1l.5-1.05q.55-1.1 1.85-1.35 2.05-.45 4.05 1.55l.25.15m-10 10.1 3.35-2M7.15 14.35l1.15-.9 5.5-3.15M-.05 9.8q3.95 3.65 5.75 3.05 1.85-.6 6.05-3.1m-21.85-6.1 3 1.5" fill="none" stroke="#b70216" stroke-linecap="round" stroke-linejoin="round" transform="translate(13.5 13.75)"/><path d="m15.55 3.85-2.3 2.35m-14.55 1 4.5 2.15 2.2.55q.85-.05 2.35-.7M18.9-5.7l.55-1q.75-1 2-1.05l4.45.5m-5.75 4.4.6-.65q.7-.6 1.55-.35 1.3.4 3.55 2.25l3.25.6" fill="none" stroke="#fb85b0" stroke-linecap="round" stroke-linejoin="round" transform="translate(13.5 13.75)"/></g></defs></svg>

<?xml version="1.0" encoding="UTF-8" standalone="no"?>
<svg xmlns:xlink="http://www.w3.org/1999/xlink" height="82.0px" width="84.85px" xmlns="http://www.w3.org/2000/svg">
  <g transform="matrix(1.0, 0.0, 0.0, 1.0, 37.4, 42.25)">
    <use height="38.0" transform="matrix(1.0, 0.0, 0.0, 1.0, -11.95, -17.45)" width="32.05" xlink:href="#sprite0"/>
    <use height="16.5" transform="matrix(1.0, 0.0, 0.0, 1.0, -12.1, 3.85)" width="32.4" xlink:href="#shape1"/>
    <use height="38.95" transform="matrix(1.0, 0.0, 0.0, 1.0, -12.45, -17.95)" width="33.05" xlink:href="#sprite1"/>
    <use height="29.55" transform="matrix(1.0, 0.0, 0.0, 1.0, -13.5, -13.75)" width="47.25" xlink:href="#shape3"/>
  </g>
  <defs>
    <g id="sprite0" transform="matrix(1.0, 0.0, 0.0, 1.0, -0.05, 0.0)">
      <use height="38.0" transform="matrix(1.0, 0.0, 0.0, 1.0, 0.05, 0.0)" width="32.05" xlink:href="#shape0"/>
    </g>
    <g id="shape0" transform="matrix(1.0, 0.0, 0.0, 1.0, -0.05, 0.0)">
      <path d="M27.35 7.4 Q29.5 11.55 30.9 16.15 32.35 20.85 32.05 25.65 31.7 30.6 27.85 33.75 24.05 36.95 19.1 37.8 L16.5 38.0 Q12.9 38.0 9.45 36.85 4.8 35.25 2.35 31.35 -0.2 27.4 0.05 23.0 0.25 18.6 2.05 13.7 3.85 8.75 7.0 5.05 10.1 1.3 14.7 0.1 L16.5 0.0 Q18.4 0.05 20.2 0.8 24.95 2.85 27.35 7.4" fill="#ffffff" fill-rule="evenodd" stroke="none"/>
    </g>
    <g id="shape1" transform="matrix(1.0, 0.0, 0.0, 1.0, 12.1, -3.85)">
      <path d="M18.9 13.15 L19.1 13.0 19.05 13.1 18.9 13.15 M17.6 14.95 L17.4 15.2 13.6 15.65 17.6 14.95" fill="#55eee5" fill-rule="evenodd" stroke="none"/>
      <path d="M-8.25 13.35 L-1.1 13.85 -0.9 14.2 -8.25 13.35" fill="#e7e278" fill-rule="evenodd" stroke="none"/>
      <path d="M18.8 13.15 L18.9 13.15 19.05 13.1 19.55 13.0 17.75 14.9 17.6 14.95 13.6 15.65 10.0 16.1 10.1 14.95 10.0 14.3 16.6 13.5 17.8 13.3 18.15 13.25 18.8 13.15 M-7.95 15.55 L-8.15 15.5 -9.3 13.45 -10.2 12.95 -9.2 13.2 -9.1 13.2 -8.25 13.35 -0.9 14.2 -0.9 14.25 -1.1 15.6 -1.0 16.15 -1.4 16.1 -6.3 15.7 -7.95 15.55 M-9.2 13.2 L-8.25 13.35 -9.2 13.2 M-8.15 15.5 L-6.3 15.7 -8.15 15.5" fill="#d5a89f" fill-rule="evenodd" stroke="none"/>
      <path d="M-1.1 13.85 Q-1.5 13.2 -1.5 12.65 L-1.5 12.45 Q-1.4 11.6 -0.7 11.1 0.1 10.55 0.85 10.75 L1.8 11.45 Q3.15 10.95 3.9 10.95 L4.4 11.0 4.8 11.1 Q5.15 10.9 5.65 10.8 6.45 10.8 7.7 11.45 8.05 11.1 8.55 11.0 L9.8 11.25 10.45 12.35 10.5 12.55 10.0 13.8 9.95 13.85 10.0 14.3 10.1 14.95 10.0 16.1 10.0 16.15 10.75 16.95 10.8 17.45 Q10.8 18.2 10.2 18.8 9.45 19.65 8.5 19.55 7.85 19.5 7.1 18.75 L2.1 19.05 Q1.25 19.7 0.4 19.65 -0.5 19.65 -1.2 18.85 -1.8 18.2 -1.8 17.5 L-1.75 17.1 Q-1.55 16.5 -1.0 16.15 L-1.1 15.6 -0.9 14.25 -0.9 14.2 -1.1 13.85 M4.8 12.35 Q4.65 11.95 3.9 11.95 2.9 11.95 1.4 12.65 0.75 11.25 -0.1 11.9 -1.1 12.6 0.15 14.0 -0.3 15.5 0.1 16.75 -1.35 17.2 -0.45 18.2 0.45 19.2 1.85 18.0 L7.45 17.7 Q8.4 19.25 9.5 18.1 10.45 17.05 8.75 16.75 9.4 15.4 8.9 13.55 9.9 12.55 9.25 12.1 8.6 11.65 7.9 12.7 6.4 11.75 5.75 11.8 5.2 11.85 4.95 12.35 L4.8 12.35" fill="#000000" fill-rule="evenodd" stroke="none"/>
      <path d="M7.55 14.15 Q8.95 16.1 7.4 16.75 L4.1 17.3 1.3 17.1 Q0.9 16.6 0.8 15.45 0.7 14.2 1.15 13.85 1.8 13.25 5.15 13.25 6.9 13.25 7.55 14.15" fill="#98cce4" fill-rule="evenodd" stroke="none"/>
      <path d="M4.8 12.35 L4.95 12.35 Q5.2 11.85 5.75 11.8 6.4 11.75 7.9 12.7 8.6 11.65 9.25 12.1 9.9 12.55 8.9 13.55 9.4 15.4 8.75 16.75 10.45 17.05 9.5 18.1 8.4 19.25 7.45 17.7 L1.85 18.0 Q0.45 19.2 -0.45 18.2 -1.35 17.2 0.1 16.75 -0.3 15.5 0.15 14.0 -1.1 12.6 -0.1 11.9 0.75 11.25 1.4 12.65 2.9 11.95 3.9 11.95 4.65 11.95 4.8 12.35 M7.55 14.15 Q6.9 13.25 5.15 13.25 1.8 13.25 1.15 13.85 0.7 14.2 0.8 15.45 0.9 16.6 1.3 17.1 L4.1 17.3 7.4 16.75 Q8.95 16.1 7.55 14.15" fill="#6196b6" fill-rule="evenodd" stroke="none"/>
      <path d="M17.4 15.2 L17.25 15.35 14.9 17.35 12.25 19.0 4.5 20.35 -0.25 19.85 -5.25 17.75 -6.75 16.9 -7.95 15.55 -6.3 15.7 -1.4 16.1 -1.0 16.15 Q-1.55 16.5 -1.75 17.1 L-1.8 17.5 Q-1.8 18.2 -1.2 18.85 -0.5 19.65 0.4 19.65 1.25 19.7 2.1 19.05 L7.1 18.75 Q7.85 19.5 8.5 19.55 9.45 19.65 10.2 18.8 10.8 18.2 10.8 17.45 L10.75 16.95 10.0 16.15 10.0 16.1 13.6 15.65 17.4 15.2" fill="#839ac0" fill-rule="evenodd" stroke="none"/>
      <path d="M-9.1 13.2 Q-11.05 12.6 -11.25 11.15 -12.45 7.75 -11.95 3.85 L-7.25 5.55 5.9 8.5 16.1 6.1 19.75 4.15 Q21.2 8.85 18.8 13.15 L18.15 13.25 17.8 13.3 10.0 13.8 10.5 12.55 10.45 12.35 9.8 11.25 8.55 11.0 Q8.05 11.1 7.7 11.45 6.45 10.8 5.65 10.8 5.15 10.9 4.8 11.1 L4.4 11.0 3.9 10.95 Q3.15 10.95 1.8 11.45 L0.85 10.75 Q0.1 10.55 -0.7 11.1 -1.4 11.6 -1.5 12.45 L-1.5 12.65 Q-1.5 13.2 -1.1 13.85 L-8.25 13.35 -9.1 13.2" fill="#ffcc00" fill-rule="evenodd" stroke="none"/>
      <path d="M-8.25 13.35 L-1.1 13.85 M10.0 13.8 L17.8 13.3 M10.0 16.1 L13.6 15.65 17.4 15.2 M-1.0 16.15 L-1.4 16.1 -6.3 15.7 -8.15 15.5 M-8.25 13.35 L-9.2 13.2" fill="none" stroke="#776456" stroke-linecap="round" stroke-linejoin="round" stroke-width="1.0"/>
    </g>
    <g id="sprite1" transform="matrix(1.0, 0.0, 0.0, 1.0, 0.45, 0.5)">
      <use height="38.95" transform="matrix(1.0, 0.0, 0.0, 1.0, -0.45, -0.5)" width="33.05" xlink:href="#shape2"/>
    </g>
    <g id="shape2" transform="matrix(1.0, 0.0, 0.0, 1.0, 0.45, 0.5)">
      <path d="M27.35 7.4 Q24.95 2.85 20.2 0.8 17.55 -0.3 14.7 0.1 10.1 1.3 7.0 5.05 3.85 8.75 2.05 13.7 0.25 18.6 0.05 23.0 -0.2 27.4 2.35 31.35 4.8 35.25 9.45 36.85 14.1 38.4 19.1 37.8 24.05 36.95 27.85 33.75 31.7 30.6 32.05 25.65 32.35 20.85 30.9 16.15 29.5 11.55 27.35 7.4 Z" fill="none" stroke="#000000" stroke-linecap="round" stroke-linejoin="round" stroke-width="1.0"/>
    </g>
    <g id="shape3" transform="matrix(1.0, 0.0, 0.0, 1.0, 13.5, 13.75)">
      <path d="M18.9 -3.1 L17.9 -5.8 17.85 -5.8 17.6 -6.4 17.85 -7.3 Q18.75 -9.45 20.55 -9.9 L23.25 -9.7 25.45 -9.6 Q27.75 -10.4 29.5 -13.75 28.95 -5.65 25.6 -3.8 L25.55 -3.8 25.3 -3.95 Q23.3 -5.95 21.25 -5.5 19.95 -5.25 19.4 -4.15 L18.9 -3.1 M20.8 5.2 L20.8 5.3 20.7 5.3 20.8 5.2 M29.1 -1.0 L25.85 -1.6 Q23.6 -3.45 22.3 -3.85 21.45 -4.1 20.75 -3.5 L20.15 -2.85 20.75 -3.5 Q21.45 -4.1 22.3 -3.85 23.6 -3.45 25.85 -1.6 L29.1 -1.0 M25.9 -7.25 L21.45 -7.75 Q20.2 -7.7 19.45 -6.7 L18.9 -5.7 19.45 -6.7 Q20.2 -7.7 21.45 -7.75 L25.9 -7.25 M18.9 4.3 L15.55 6.3 18.9 4.3 M7.75 9.2 Q6.25 9.85 5.4 9.9 L3.2 9.35 -1.3 7.2 3.2 9.35 5.4 9.9 Q6.25 9.85 7.75 9.2 M-7.1 5.15 L-10.1 3.65 -7.1 5.15 M11.75 9.75 Q7.55 12.25 5.7 12.85 3.9 13.45 -0.05 9.8 3.9 13.45 5.7 12.85 7.55 12.25 11.75 9.75 M-11.7 2.15 L-12.1 2.2 -12.1 2.15 -11.7 2.15" fill="#e4192b" fill-rule="evenodd" stroke="none"/>
      <path d="M20.75 4.8 L20.8 4.75 20.8 5.2 20.7 5.3 20.05 5.8 Q18.45 6.9 14.65 10.95 L10.65 15.15 Q9.5 15.85 7.15 14.35 L8.3 13.45 13.8 10.3 8.3 13.45 7.15 14.35 6.95 14.2 19.75 5.4 20.75 4.8" fill="#b70216" fill-rule="evenodd" stroke="none"/>
      <path d="M25.7 -3.7 L26.95 -2.85 Q28.65 -1.85 29.2 -2.2 M7.15 14.35 Q5.7 15.3 4.55 15.3 3.0 15.3 -6.45 9.15 L-6.85 8.85 -12.75 4.2 -12.8 4.15 Q-13.3 3.55 -12.45 2.4 L-12.1 2.2 -11.7 2.15 -11.45 2.15 Q-11.05 2.2 -10.8 2.45 M18.9 -3.1 L19.4 -4.15 Q19.95 -5.25 21.25 -5.5 23.3 -5.95 25.3 -3.95 L25.55 -3.8 M15.55 6.3 L18.9 4.3 M7.15 14.35 L8.3 13.45 13.8 10.3 M-0.05 9.8 Q3.9 13.45 5.7 12.85 7.55 12.25 11.75 9.75 M-10.1 3.65 L-7.1 5.15" fill="none" stroke="#b70216" stroke-linecap="round" stroke-linejoin="round" stroke-width="1.0"/>
      <path d="M15.55 3.85 L13.25 6.2 M-1.3 7.2 L3.2 9.35 5.4 9.9 Q6.25 9.85 7.75 9.2" fill="none" stroke="#fb85b0" stroke-linecap="round" stroke-linejoin="round" stroke-width="1.0"/>
      <path d="M18.9 -5.7 L19.45 -6.7 Q20.2 -7.7 21.45 -7.75 L25.9 -7.25 M20.15 -2.85 L20.75 -3.5 Q21.45 -4.1 22.3 -3.85 23.6 -3.45 25.85 -1.6 L29.1 -1.0" fill="none" stroke="#fb85b0" stroke-linecap="round" stroke-linejoin="round" stroke-width="1.0"/>
    </g>
  </defs>
</svg>
